X:2985
L:1/8
M:6/8
K:Gmin
 D | GBd dBG | g^fg dBG | cde edc | Bcd BAG | GBd dBG | g^fg dBG | c/d/ec dBG | A^FD G2 :: B | 
 BcB fdB | bfd fdB | cdc gec | GAB A^FD | GBd dBG | g^fg cde | dBd dBd | A^FD G2 :|

